X: 10574
M: C|
L: 1/8
K: F
(3(cde) |\
gfcB ABcA | BcdB G2GF | EFGE CDEC | FGAB =Bcde |\
fcag fedc | dBba gfed | cfdB AFGE | [F2A,2][F2A,2][F2A,2] :|
|: AB |\
{d}c=BcA Fafc | d^cdB Gbge | fcag fedc | BAGF ECDE |\


